X:1
T:Man of Sorrows— What a Name
T:Text and tune: Philip P. Bliss, 1875, alt. 
T:77 78 HALLELUJIAH! WHAT A SAVIOR www.hymnary.org/text/man_of_sorrows_what_a_name
T:Man of Sorrows— What a Name
T:This hymn is in the public domain. You may freely use this score for personal and congregational worship. If you reproduce the score, please credit Hymnary.org as the source. 
T:This hymn is in the public domain. You may freely use this score for personal and congregational worship. If you reproduce the score, please credit Hymnary.org as the source. 
Z:This hymn is in the public domain. You may freely use this score for personal and congregational worship. If you reproduce the score, please credit Hymnary.org as the source.
%%score ( 1 2 ) ( 3 4 )
L:1/8
M:4/4
K:Bb
V:1 treble nm="SOPRANO ALTO" snm="S. A."
V:2 treble 
V:3 bass nm="TENOR BASS" snm="T. B."
V:4 bass 
V:1
"^1""^2""^3""^4""^5" F2 F2 F2 D2 | B2 B2 A4 | G2 G2 | F2 B2 | A2 G2 F4 | F2 F2 F2 D2 |1 %6
w: Man of sor- rows—|what a name|for the|Son of|God, who came|ru- ined sin- ners|
w: Bear- ing shame and|scoff- ing rude,|in my|place con-|demned he stood,|sealed my par- don|
w: Guilt- y, help- less|lost were we;|blame- less|Lamb of|God was he,|sac- ri- ficed to|
w: He was lift- ed|up to die;|"It is|fin- ished"|was his cry;|now in heaven ex-|
w: When he comes, our|glo- rious King,|all his|ran- somed|home to bring,|then a- new this|
 B2 B2 B2 B>c | d4 c2 B>G | G4 F4 |] %9
w: to re- claim: Hal- le-|lu- jah, what a|Sav- ior!|
w: with his blood: Hal- le-|lu- jah, what a|Sav- ior!|
w: set us free: Hal- le-|lu- jah, what a|Sav- ior!|
w: alt- ed high: Hal- le-|lu- jah, what a|Sav- ior!|
w: song we'll sing: Hal- le-|lu- jah, what a|Sav- ior!|
V:2
 D2 D2 D2 B,2 | D2 D2 (D2 C2) | B,2 C2 | D2 F2 | F2 =E2 F4 | D2 D2 D2 B,2 |1 D2 E2 D2 F>F | %7
 F4 E2 D>D | E4 D4 |] %9
V:3
 B,2 B,2 B,2 F,2 | G,2 G,2 ^F,4 | G,2 A,2 | B,2 D2 | C2 B,2 A,4 | B,2 B,2 B,2 F,2 |1 %6
 F,2 G,2 F,2 B,>A, | B,4 A,2 B,>B, | B,4 B,4 |] %9
V:4
 B,,2 B,,2 B,,2 B,,2 | G,,2 G,,2 D,4 | E,2 E,2 | D,2 B,,2 | C,2 C,2 F,,4 | B,,2 B,,2 B,,2 B,,2 |1 %6
 B,,2 B,,2 B,,2 D,>F, | B,4 F,2 G,>G, | E,4 B,,4 |] %9

